fs/emoji_32_regular.svg

<svg viewBox="0 0 32 32" fill="none" xmlns="http://www.w3.org/2000/svg" height="1em" width="1em">
  <path d="M12 15C13.1046 15 14 14.1046 14 13C14 11.8954 13.1046 11 12 11C10.8954 11 10 11.8954 10 13C10 14.1046 10.8954 15 12 15ZM22 13C22 14.1046 21.1046 15 20 15C18.8954 15 18 14.1046 18 13C18 11.8954 18.8954 11 20 11C21.1046 11 22 11.8954 22 13ZM9.553 19.1056C10.0445 18.8598 10.6416 19.0568 10.8909 19.5453L10.8944 19.5518C10.8999 19.5618 10.9111 19.5816 10.9282 19.6099C10.9626 19.6666 11.0207 19.7565 11.1049 19.8688C11.2737 20.0938 11.5446 20.4049 11.9374 20.7191C12.7104 21.3375 13.9931 22 16.0002 22C18.0073 22 19.29 21.3375 20.063 20.7191C20.4558 20.4049 20.7268 20.0938 20.8955 19.8688C20.9797 19.7565 21.0378 19.6666 21.0722 19.6099C21.0894 19.5816 21.1005 19.5618 21.1061 19.5518L21.1096 19.5453C21.3589 19.0568 21.9559 18.8598 22.4474 19.1056C22.9414 19.3526 23.1416 19.9532 22.8946 20.4472L22.8941 20.4483L22.8935 20.4495L22.8922 20.452L22.8893 20.4579L22.8815 20.4729C22.8755 20.4843 22.8678 20.4987 22.8585 20.5156C22.8398 20.5495 22.8144 20.5941 22.7818 20.6479C22.7165 20.7553 22.6222 20.8998 22.4955 21.0688C22.2424 21.4062 21.8571 21.8451 21.3124 22.2809C20.2104 23.1625 18.4931 24 16.0002 24C13.5073 24 11.79 23.1625 10.688 22.2809C10.1433 21.8451 9.75802 21.4062 9.5049 21.0688C9.37817 20.8998 9.28388 20.7553 9.21867 20.6479C9.18603 20.5941 9.16059 20.5495 9.14194 20.5156C9.13261 20.4987 9.12497 20.4843 9.11896 20.4729L9.11117 20.4579L9.10818 20.452L9.10691 20.4495L9.10633 20.4483L9.10578 20.4472C8.85881 19.9532 9.05902 19.3526 9.553 19.1056ZM16 2C8.26801 2 2 8.26801 2 16C2 23.732 8.26801 30 16 30C23.732 30 30 23.732 30 16C30 8.26801 23.732 2 16 2ZM4 16C4 9.37258 9.37258 4 16 4C22.6274 4 28 9.37258 28 16C28 22.6274 22.6274 28 16 28C9.37258 28 4 22.6274 4 16Z" fill="#212121"/>
</svg>

<svg viewBox="0 0 32 32" fill="none" xmlns="http://www.w3.org/2000/svg" height="1em" width="1em">
  <path d="M12 15a2 2 0 1 0 0-4 2 2 0 0 0 0 4Zm10-2a2 2 0 1 1-4 0 2 2 0 0 1 4 0ZM9.553 19.106a1 1 0 0 1 1.338.44l.003.006.034.058c.035.057.093.146.177.259.169.225.44.536.832.85C12.71 21.337 13.993 22 16 22c2.007 0 3.29-.663 4.063-1.28.393-.315.664-.626.832-.851a3.242 3.242 0 0 0 .211-.317l.004-.007a1 1 0 0 1 1.785.902v.001l-.002.002v.002l-.004.006-.008.015a2.613 2.613 0 0 1-.1.175 4.96 4.96 0 0 1-.285.42 6.76 6.76 0 0 1-1.184 1.213C20.21 23.163 18.493 24 16 24c-2.493 0-4.21-.837-5.312-1.72a6.76 6.76 0 0 1-1.183-1.211 5.24 5.24 0 0 1-.386-.596l-.008-.015-.003-.006-.001-.003-.001-.002a1 1 0 0 1 .447-1.341ZM16 2C8.268 2 2 8.268 2 16s6.268 14 14 14 14-6.268 14-14S23.732 2 16 2ZM4 16C4 9.373 9.373 4 16 4s12 5.373 12 12-5.373 12-12 12S4 22.627 4 16Z" fill="#212121"/>
</svg>
